_inc/systems/logos/auto-lastplayed.svg

<?xml version="1.0" encoding="utf-8"?>
<svg viewBox="0 0 200 40" xmlns="http://www.w3.org/2000/svg">
  <g id="Group" transform="matrix(1.66729, 0, 0, 1.663529, 5.351232, 9.862157)" fill-rule="nonzero" fill="#BBA358">
    <path d="M7.38768955,0.0828612674 C4.47840652,0.0828612674 2.05102998,2.15201569 1.49639246,4.89939133 L0.430479403,4.89939133 C0.383351189,4.89939819 0.3402699,4.92602578 0.319190054,4.9681768 C0.298110207,5.01032783 0.302648611,5.06077016 0.330913843,5.0984815 L1.93642387,7.23916154 C1.95992658,7.2705029 1.99681473,7.28894853 2.03598944,7.28894853 C2.07516415,7.28894853 2.1120523,7.2705029 2.13555501,7.23916154 L3.74106502,5.0984815 C3.76933025,5.06077016 3.77386866,5.01032783 3.75278881,4.96817681 C3.73170897,4.92602579 3.68862768,4.8993982 3.64149947,4.89939133 L2.85329604,4.89939133 C3.38233657,2.88776029 5.20860885,1.40209472 7.38768955,1.40209472 C9.98079267,1.40209472 12.0797729,3.50107499 12.0797729,6.09417811 C12.0797729,8.68728123 9.98079267,10.7862615 7.38768955,10.7862615 C5.76122625,10.7862615 4.32947857,9.95942693 3.48745781,8.70345973 C3.46435422,8.66898149 3.4255835,8.64828946 3.38408018,8.64828685 L2.144081,8.64828685 C2.1007501,8.64829914 2.06054488,8.67084858 2.03794085,8.70781647 C2.01533681,8.74478436 2.01358838,8.79084822 2.03332507,8.82942322 C3.02907526,10.774459 5.05362488,12.105495 7.38768955,12.105495 C10.706092,12.105495 13.3990064,9.41258056 13.3990064,6.09417811 C13.3990064,2.77575508 10.7060916,0.0828612674 7.38768955,0.0828612674 Z" id="path4921" style="fill: rgb(255, 255, 255);"/>
    <path d="M6.98818588,2.68890476 C6.88882618,2.68890489 6.80827927,2.7694518 6.80827914,2.86881149 L6.80827914,6.7851934 C6.80828568,6.84889377 6.84197688,6.90784161 6.89685943,6.94017801 L9.68563791,8.58364503 C9.77120442,8.63405979 9.88143723,8.60560252 9.93190783,8.52006893 L10.2037969,8.05929657 C10.2541435,7.97393375 10.2259736,7.86392976 10.1407948,7.81327241 L7.70326263,6.36389456 L7.70326263,2.86881149 C7.70326249,2.7694518 7.62271558,2.68890489 7.52335589,2.68890476 L6.98818588,2.68890476 Z" id="polygon4923" style="fill: rgb(255, 255, 255);"/>
  </g>
  <path d="M 45.885 24.363 L 45.053 29.151 L 33.763 29.151 L 37.031 10.449 L 42.676 10.449 L 40.24 24.363 L 45.885 24.363 Z M 50.311 26.189 L 49.153 29.151 L 43.211 29.151 L 51.025 10.449 L 59.76 10.449 L 61.067 29.151 L 55.095 29.151 L 54.976 26.189 L 50.311 26.189 Z M 54.531 16.194 L 54.234 16.194 L 52.154 21.43 L 54.531 21.43 L 54.531 16.194 Z M 62.493 28.822 L 62.493 28.822 L 64.156 23.885 L 64.156 23.885 C 65.821 24.343 67.345 24.573 68.732 24.573 L 68.732 24.573 L 68.732 24.573 C 70.118 24.573 71.237 24.513 72.089 24.393 L 72.089 24.393 L 72.327 22.897 L 69.861 22.658 L 69.861 22.658 C 67.979 22.478 66.646 22.049 65.86 21.371 L 65.86 21.371 L 65.86 21.371 C 65.08 20.693 64.691 19.735 64.691 18.498 L 64.691 18.498 L 64.691 18.498 C 64.691 17.96 64.75 17.361 64.869 16.703 L 64.869 16.703 L 64.869 16.703 C 65.325 14.149 66.15 12.394 67.345 11.436 L 67.345 11.436 L 67.345 11.436 C 68.546 10.479 70.405 10 72.921 10 L 72.921 10 L 72.921 10 C 75.437 10 77.655 10.25 79.576 10.748 L 79.576 10.748 L 78.031 15.536 L 78.031 15.536 C 76.308 15.237 74.922 15.087 73.871 15.087 L 73.871 15.087 L 73.871 15.087 C 72.822 15.087 71.931 15.137 71.198 15.237 L 71.198 15.237 L 70.96 16.703 L 72.951 16.912 L 72.951 16.912 C 74.971 17.132 76.407 17.617 77.258 18.369 L 77.258 18.369 L 77.258 18.369 C 78.111 19.114 78.536 20.114 78.536 21.371 L 78.536 21.371 L 78.536 21.371 C 78.536 22.648 78.259 23.964 77.704 25.321 L 77.704 25.321 L 77.704 25.321 C 77.427 26.019 77.123 26.604 76.793 27.076 L 76.793 27.076 L 76.793 27.076 C 76.469 27.542 76.054 27.938 75.546 28.263 L 75.546 28.263 L 75.546 28.263 C 75.043 28.595 74.585 28.845 74.168 29.011 L 74.168 29.011 L 74.168 29.011 C 73.753 29.184 73.228 29.311 72.594 29.391 L 72.594 29.391 L 72.594 29.391 C 71.663 29.53 70.524 29.6 69.178 29.6 L 69.178 29.6 L 69.178 29.6 C 66.722 29.6 64.493 29.341 62.493 28.822 Z M 95.857 10.449 L 94.995 15.237 L 90.896 15.237 L 88.489 29.151 L 82.844 29.151 L 85.251 15.237 L 81.181 15.237 L 82.042 10.449 L 95.857 10.449 Z M 111.01 24.633 L 111.01 24.633 L 107.325 24.633 L 106.553 29.151 L 100.908 29.151 L 104.176 10.449 L 113.089 10.449 L 113.089 10.449 C 116.456 10.449 118.14 12.025 118.14 15.177 L 118.14 15.177 L 118.14 15.177 C 118.14 16.673 117.932 18.022 117.516 19.226 L 117.516 19.226 L 117.516 19.226 C 117.1 20.437 116.642 21.398 116.139 22.109 L 116.139 22.109 L 116.139 22.109 C 115.631 22.814 114.934 23.412 114.05 23.905 L 114.05 23.905 L 114.05 23.905 C 113.171 24.39 112.158 24.633 111.01 24.633 Z M 110.266 15.237 L 108.959 15.237 L 108.157 19.845 L 109.464 19.845 L 109.464 19.845 C 110.138 19.845 110.646 19.772 110.99 19.625 L 110.99 19.625 L 110.99 19.625 C 111.339 19.473 111.564 19.127 111.663 18.588 L 111.663 18.588 L 111.663 18.588 C 111.921 17.112 112.049 16.304 112.049 16.164 L 112.049 16.164 L 112.049 16.164 C 112.049 15.785 111.901 15.536 111.604 15.416 L 111.604 15.416 L 111.604 15.416 C 111.307 15.296 110.861 15.237 110.266 15.237 L 110.266 15.237 Z M 130.054 24.363 L 129.222 29.151 L 117.932 29.151 L 121.2 10.449 L 126.845 10.449 L 124.409 24.363 L 130.054 24.363 Z M 134.48 26.189 L 133.322 29.151 L 127.38 29.151 L 135.194 10.449 L 143.928 10.449 L 145.235 29.151 L 139.264 29.151 L 139.145 26.189 L 134.48 26.189 Z M 138.699 16.194 L 138.402 16.194 L 136.322 21.43 L 138.699 21.43 L 138.699 16.194 Z M 146.513 10.449 L 152.752 10.449 L 153.138 17.032 L 153.347 17.032 L 156.08 10.449 L 162.319 10.449 L 154.832 24.064 L 153.97 29.151 L 148.325 29.151 L 149.187 24.064 L 146.513 10.449 Z M 173.43 17.75 L 172.658 22.089 L 167.013 22.089 L 166.627 24.363 L 173.549 24.363 L 172.717 29.151 L 160.15 29.151 L 163.418 10.449 L 175.837 10.449 L 174.292 15.237 L 168.201 15.237 L 167.785 17.75 L 173.43 17.75 Z M 183.799 29.151 L 175.896 29.151 L 179.164 10.449 L 187.067 10.449 L 187.067 10.449 C 189.623 10.449 191.437 10.905 192.514 11.815 L 192.514 11.815 L 192.514 11.815 C 193.597 12.72 194.138 14.189 194.138 16.224 L 194.138 16.224 L 194.138 16.224 C 194.138 17.261 194.019 18.458 193.782 19.815 L 193.782 19.815 L 193.782 19.815 C 193.188 23.166 192.17 25.56 190.731 26.997 L 190.731 26.997 L 190.731 26.997 C 189.298 28.433 186.988 29.151 183.799 29.151 L 183.799 29.151 Z M 186.295 15.237 L 186.295 15.237 L 183.948 15.237 L 182.373 24.363 L 184.72 24.363 L 184.72 24.363 C 185.492 24.363 186.067 24.271 186.443 24.084 L 186.443 24.084 L 186.443 24.084 C 186.82 23.892 187.067 23.456 187.186 22.777 L 187.186 22.777 L 188.226 16.823 L 188.226 16.823 C 188.245 16.703 188.255 16.543 188.255 16.344 L 188.255 16.344 L 188.255 16.344 C 188.255 15.885 188.097 15.586 187.78 15.446 L 187.78 15.446 L 187.78 15.446 C 187.463 15.306 186.968 15.237 186.295 15.237 Z" style="white-space: pre; fill: rgb(255, 255, 255);"/>
</svg>

<svg xmlns="http://www.w3.org/2000/svg" viewBox="0 0 200 40"><g fill="currentColor"><path d="M7.39.08a6 6 0 0 0-5.9 4.82H.44a.12.12 0 0 0-.1.2l1.6 2.14a.12.12 0 0 0 .2 0L3.75 5.1a.12.12 0 0 0-.1-.2h-.79a4.69 4.69 0 1 1 .64 3.8.1.1 0 0 0-.1-.05H2.13a.12.12 0 0 0-.1.18A6.01 6.01 0 1 0 7.38.08" style="fill:#fff" transform="matrix(1.66729 0 0 1.66353 5.35 9.86)"/><path d="M6.99 2.69q-.17.02-.18.18v3.92q0 .1.09.15l2.79 1.64c.08.05.2.03.24-.06l.27-.46a.2.2 0 0 0-.06-.25L7.7 6.36v-3.5q-.02-.16-.18-.17z" style="fill:#fff" transform="matrix(1.66729 0 0 1.66353 5.35 9.86)"/></g><path d="m45.89 24.36-.84 4.8H33.76l3.27-18.71h5.65l-2.44 13.91zm4.42 1.83-1.16 2.96h-5.94l7.81-18.7h8.74l1.3 18.7H55.1l-.11-2.96zm4.22-10h-.3l-2.08 5.24h2.38zm7.96 12.63 1.67-4.93q2.5.68 4.57.68t3.36-.18l.24-1.5-2.47-.23q-2.82-.27-4-1.29a3.6 3.6 0 0 1-1.17-2.87q0-.81.18-1.8.68-3.82 2.47-5.26Q69.15 10 72.93 10t6.66.75l-1.55 4.79q-2.57-.45-4.16-.45-1.58 0-2.67.15l-.24 1.46 2 .21q3.02.32 4.3 1.46a3.8 3.8 0 0 1 1.28 3q0 1.92-.84 3.95-.41 1.05-.9 1.76-.5.7-1.25 1.18-.76.5-1.38.75-.62.26-1.58.38-1.4.21-3.41.21-3.69 0-6.69-.78m33.37-18.37L95 15.24h-4.1l-2.41 13.91h-5.65l2.41-13.91h-4.07l.86-4.8zM111 24.63h-3.69l-.77 4.52h-5.64l3.27-18.7h8.9q5.06 0 5.06 4.73 0 2.24-.62 4.05a12 12 0 0 1-1.38 2.88q-.75 1.05-2.09 1.8-1.33.72-3.04.72m-.74-9.4h-1.31l-.8 4.61h1.3q1.02 0 1.53-.21.52-.23.67-1.04.39-2.22.39-2.43 0-.56-.45-.74t-1.33-.18m19.78 9.13-.83 4.8h-11.29l3.27-18.71h5.64l-2.43 13.91zm4.43 1.83-1.16 2.96h-5.94l7.81-18.7h8.74l1.3 18.7h-5.97l-.11-2.96zm4.22-10h-.3l-2.08 5.24h2.38zm7.81-5.74h6.24l.39 6.58h.2l2.74-6.58h6.24l-7.49 13.61-.86 5.1h-5.65l.87-5.1zm26.92 7.3-.77 4.34H167l-.38 2.27h6.92l-.83 4.8h-12.57l3.27-18.71h12.42l-1.55 4.79h-6.09l-.41 2.51zm10.37 11.4h-7.9l3.26-18.7h7.9q3.84 0 5.45 1.37 1.63 1.35 1.63 4.4 0 1.56-.36 3.6-.9 5.02-3.05 7.18-2.14 2.15-6.93 2.15m2.5-13.91h-2.35l-1.58 9.12h2.35q1.16 0 1.72-.28t.75-1.3l1.04-5.96q.03-.18.03-.48 0-.68-.48-.9a4 4 0 0 0-1.49-.2" style="white-space:pre;fill:#fff"/></svg>
